X:15
T:The Channe's Fancy
T:Bonny If Sanl, #54
D:Altan: Isean Aighra
Z:id:hn-mazurka-3
M:6/8
K:G



*****************************


14100 4 0.7290199 

<starhThh&
eg|7g gf|ed ~g2|B2 g2 ag|
(3efa gd cd|fe c2 A2|Bc BA GB|AF GA BG|c2 BA GA|
B2 B2 dB|c2 A2 FA|B


*****************************


14200 4 0.99079096 

<start>
